antibot/app/images/dist/infinite-icon.svg

<svg width="24" height="12" viewBox="0 0 24 12" fill="none" xmlns="http://www.w3.org/2000/svg">
<path d="M23.6254 6.14911C23.6256 7.26173 23.2957 8.3494 22.6777 9.27455C22.0596 10.1997 21.181 10.9208 20.1531 11.3466C19.1252 11.7724 17.9941 11.8838 16.9029 11.6667C15.8116 11.4496 14.8093 10.9137 14.0226 10.1269L13.9767 10.0772L8.3648 3.74068C7.89035 3.27492 7.2889 2.95966 6.63594 2.83448C5.98297 2.7093 5.30758 2.77976 4.69452 3.03702C4.08145 3.29429 3.55803 3.72689 3.18993 4.28055C2.82184 4.83421 2.62547 5.48426 2.62547 6.14911C2.62547 6.81397 2.82184 7.46402 3.18993 8.01768C3.55803 8.57133 4.08145 9.00394 4.69452 9.26121C5.30758 9.51847 5.98297 9.58893 6.63594 9.46375C7.2889 9.33856 7.89035 9.02331 8.3648 8.55755L8.65355 8.2313C8.75148 8.1205 8.87029 8.03007 9.00317 7.96518C9.13605 7.90029 9.28042 7.86221 9.42802 7.85312C9.57562 7.84402 9.72357 7.86408 9.86342 7.91216C10.0033 7.96024 10.1323 8.03539 10.2431 8.13333C10.3539 8.23127 10.4443 8.35007 10.5092 8.48296C10.5741 8.61584 10.6122 8.76021 10.6213 8.90781C10.6304 9.05541 10.6103 9.20336 10.5622 9.34321C10.5141 9.48305 10.439 9.61206 10.341 9.72286L10.027 10.0772L9.98104 10.1269C9.19434 10.9135 8.19206 11.4491 7.10094 11.6661C6.00982 11.8831 4.87887 11.7716 3.85109 11.3458C2.82331 10.9201 1.94486 10.1991 1.32682 9.2741C0.708783 8.34909 0.378906 7.26159 0.378906 6.14911C0.378906 5.03663 0.708783 3.94914 1.32682 3.02413C1.94486 2.09912 2.82331 1.37815 3.85109 0.952383C4.87887 0.526612 6.00982 0.415162 7.10094 0.632127C8.19206 0.849092 9.19434 1.38473 9.98104 2.1713L10.027 2.22099L15.6389 8.55755C16.1133 9.02331 16.7148 9.33856 17.3677 9.46375C18.0207 9.58893 18.6961 9.51847 19.3091 9.26121C19.9222 9.00394 20.4456 8.57133 20.8137 8.01768C21.1818 7.46402 21.3782 6.81397 21.3782 6.14911C21.3782 5.48426 21.1818 4.83421 20.8137 4.28055C20.4456 3.72689 19.9222 3.29429 19.3091 3.03702C18.6961 2.77976 18.0207 2.7093 17.3677 2.83448C16.7148 2.95966 16.1133 3.27492 15.6389 3.74068L15.3501 4.06693C15.2522 4.17773 15.1334 4.26816 15.0005 4.33305C14.8676 4.39794 14.7232 4.43602 14.5756 4.44511C14.428 4.45421 14.2801 4.43415 14.1402 4.38607C14.0004 4.33799 13.8714 4.26283 13.7606 4.1649C13.6498 4.06696 13.5593 3.94816 13.4945 3.81527C13.4296 3.68239 13.3915 3.53802 13.3824 3.39042C13.3733 3.24282 13.3934 3.09487 13.4414 2.95502C13.4895 2.81517 13.5647 2.68617 13.6626 2.57536L13.9767 2.22099L14.0226 2.1713C14.8093 1.3845 15.8116 0.848657 16.9029 0.63156C17.9941 0.414462 19.1252 0.525857 20.1531 0.951655C21.181 1.37745 22.0596 2.09853 22.6777 3.02368C23.2957 3.94883 23.6256 5.0365 23.6254 6.14911Z" fill="#EFB503"/>
</svg>

<svg width="24" height="12" fill="none" xmlns="http://www.w3.org/2000/svg"><path d="M23.625 6.15a5.625 5.625 0 0 1-9.602 3.977l-.046-.05-5.612-6.336a3.375 3.375 0 1 0 0 4.817l.289-.327a1.126 1.126 0 1 1 1.687 1.492l-.314.354-.046.05a5.625 5.625 0 1 1 0-7.956l.046.05 5.612 6.337a3.375 3.375 0 1 0 0-4.817l-.289.326a1.125 1.125 0 1 1-1.687-1.492l.314-.354.046-.05a5.625 5.625 0 0 1 9.602 3.978Z" fill="#EFB503"/></svg>
